X: 1
T: Maggie's Pancakes
R: reel
M: 4/4
L: 1/8
Q:1/2=80
K: Dmaj
"Bm"fBB2 fgfe           |"Bm"dB B1/2B1/2B GBdB      |"A"cAA "D"dAA "A"ec   |"A"AfdB ecAc     |
"Bm"dB B1/2B1/2B fgfe   |"G"dB B1/2B1/2B GBdB       |"A"cABc ABc(e         |"A"e)fec Bcde   :|
|:"G"f2dB GBdB          |"A"caec "Bm"dB B1/2B1/2B   |"G"f2dB GBdB          |"A"cAec Bcde     |
"D"fd d1/2d1/2d fgfe    |"G"dB B1/2B1/2B GBdB       |"A"cA"D"dA "A"ecA(a   |"A"a)fec Bcde   :|
